src/assets/filled/TextalignJustifyright.svg

<?xml version="1.0" encoding="UTF-8"?>
<svg width="24" height="24" viewBox="0 0 24 24" xmlns="http://www.w3.org/2000/svg">
 <path d="m21 5.25h-9c-0.41 0-0.75-0.34-0.75-0.75s0.34-0.75 0.75-0.75h9c0.41 0 0.75 0.34 0.75 0.75s-0.34 0.75-0.75 0.75z"/>
 <path d="m21 10.25h-9c-0.41 0-0.75-0.34-0.75-0.75s0.34-0.75 0.75-0.75h9c0.41 0 0.75 0.34 0.75 0.75s-0.34 0.75-0.75 0.75z"/>
 <path d="m21 15.25h-18c-0.41 0-0.75-0.34-0.75-0.75s0.34-0.75 0.75-0.75h18c0.41 0 0.75 0.34 0.75 0.75s-0.34 0.75-0.75 0.75z"/>
 <path d="m21 20.25h-18c-0.41 0-0.75-0.34-0.75-0.75s0.34-0.75 0.75-0.75h18c0.41 0 0.75 0.34 0.75 0.75s-0.34 0.75-0.75 0.75z"/>
</svg>

<svg width="24" height="24" viewBox="0 0 24 24"  xmlns="http://www.w3.org/2000/svg">
<path d="M21 5.25H12C11.59 5.25 11.25 4.91 11.25 4.5C11.25 4.09 11.59 3.75 12 3.75H21C21.41 3.75 21.75 4.09 21.75 4.5C21.75 4.91 21.41 5.25 21 5.25Z" />
<path d="M21 10.25H12C11.59 10.25 11.25 9.91 11.25 9.5C11.25 9.09 11.59 8.75 12 8.75H21C21.41 8.75 21.75 9.09 21.75 9.5C21.75 9.91 21.41 10.25 21 10.25Z" />
<path d="M21 15.25H3C2.59 15.25 2.25 14.91 2.25 14.5C2.25 14.09 2.59 13.75 3 13.75H21C21.41 13.75 21.75 14.09 21.75 14.5C21.75 14.91 21.41 15.25 21 15.25Z" />
<path d="M21 20.25H3C2.59 20.25 2.25 19.91 2.25 19.5C2.25 19.09 2.59 18.75 3 18.75H21C21.41 18.75 21.75 19.09 21.75 19.5C21.75 19.91 21.41 20.25 21 20.25Z" />
</svg>
